!!!OTL: Altes Jagdhorn - Stueckchen
!!!ARE: Europa, Mitteleuropa, Deutschland
!!!SCT: A0442
!!!YEM: Copyright 1995, estate of Helmut Schaffrath.
**kern
*ICvox
*Ivox
*M3/1
*k[b-]
*F:
{1c
=1
0f
1g
=2
1a
1f
1cc
=3
0cc
1b-
=4
1a
0g
=5
0.f
=6
0r}
{1f
=7
0a
1b-
=8
0cc
1b-
=9
0.cc
=10
0r}
{1c
=11
0f
1g
=12
1a
1f
1cc
=13
0cc
1b-
=14
1a
0g
=15
0.f
=16
0r}
{1f
=17
0a
1b-
=18
0cc
1b-
=19
0.cc
=20
0r}
{1cc
=21
1b-
0g
=22
1.a
2g
2a
2b-
=23
0cc
1b-
=24
1.cc
2b-
1cc
=25
0f}
{1f
=26
0g
1g
=27
1e
0d
=28
0.c
=29
0r}
{1c
=30
0f
[1f
=31
1f]
1g
1g
=32
1.a
2g
1a
=33
0f
1r}
=34
{1.a
2b-
1cc
=35
1a
1f
1g
=36
0f
1r
=37
0r}
{1f
=38
0cc
1cc
=39
1.g
2a
1b-
=40
1cc
0a
=41
0g}
{1a
=42
0cc
1b-
=43
0a
[1b-
=44
1b-]
0g
=45
0.f
=46
0r}
==
!!!AGN: Romanze, Ballade, Lied, Jaegerlied
!! Ott III 1544 No. 6.
!!!ONB: ESAC (Essen Associative Code) Database: ALTDEU
!!!AMT: simple triple
!!!AIN: vox
!!!EED: Helmut Schaffrath
!!!EEV: 1.0
*-
